X: 27364
T: Mixing The Punch
R: jig
M: 6/8
K: Dmajor
AG|:FED dfe|dAF GFE|GBG edB|ABA GFE|
FAD GBE|Ace dAG|FDG ECE|DED D3:|
d2 d def|ABA Fdc|Bcd efg|d2 f ecA|
FED def|efg ecA|FDG ECE|DED D3:|

